src/assets/filled/BrifecaseCross.svg

<svg width="24" height="24" viewBox="0 0 24 24"  xmlns="http://www.w3.org/2000/svg">
<path d="M13.6001 14.5099L13.0701 13.9799L13.5701 13.4799C13.8601 13.1899 13.8601 12.7099 13.5701 12.4199C13.2801 12.1299 12.8001 12.1299 12.5101 12.4199L12.0101 12.9199L11.4801 12.3899C11.1901 12.0999 10.7101 12.0999 10.4201 12.3899C10.1301 12.6799 10.1301 13.1599 10.4201 13.4499L10.9501 13.9799L10.4001 14.5299C10.1101 14.8199 10.1101 15.2999 10.4001 15.5899C10.5501 15.7399 10.7401 15.8099 10.9301 15.8099C11.1201 15.8099 11.3101 15.7399 11.4601 15.5899L12.0101 15.0399L12.5401 15.5699C12.6901 15.7199 12.8801 15.7899 13.0701 15.7899C13.2601 15.7899 13.4501 15.7199 13.6001 15.5699C13.8901 15.2799 13.8901 14.8099 13.6001 14.5099Z" />
<path d="M21.09 6.98002C20.24 6.04002 18.83 5.57002 16.76 5.57002H16.52V5.53002C16.52 3.85002 16.52 1.77002 12.76 1.77002H11.24C7.48004 1.77002 7.48004 3.85002 7.48004 5.53002V5.57002H7.24004C5.17004 5.57002 3.75004 6.04002 2.91004 6.98002C1.92004 8.09002 1.95004 9.56002 2.05004 10.57L2.06004 10.64L2.12912 11.446C2.14232 11.5999 2.22586 11.7392 2.35558 11.8232C2.63927 12.0068 2.94109 12.1995 3.23004 12.36C3.37004 12.45 3.52004 12.53 3.67004 12.61C4.80004 13.23 6.01004 13.72 7.25004 14.06C7.28004 16.65 9.40004 18.75 12 18.75C14.62 18.75 16.75 16.62 16.75 14V13.96C18.01 13.58 19.22 13.05 20.35 12.39C20.41 12.36 20.45 12.33 20.5 12.3C20.8949 12.0854 21.3045 11.8045 21.6782 11.5395C21.7941 11.4573 21.869 11.3293 21.8847 11.1881L21.9 11.05L21.95 10.58C21.96 10.52 21.96 10.47 21.97 10.4C22.05 9.40002 22.03 8.02002 21.09 6.98002ZM8.91004 5.53002C8.91004 3.83002 8.91004 3.19002 11.24 3.19002H12.76C15.09 3.19002 15.09 3.83002 15.09 5.53002V5.57002H8.91004V5.53002ZM12 17.25C10.35 17.25 8.98004 16.01 8.78004 14.41C8.76004 14.28 8.75004 14.14 8.75004 14C8.75004 12.21 10.21 10.75 12 10.75C13.79 10.75 15.25 12.21 15.25 14C15.25 14.12 15.24 14.23 15.23 14.34V14.35C15.05 15.98 13.67 17.25 12 17.25Z" />
<path d="M21.0416 13.7311C21.2903 13.5929 21.6129 13.7931 21.587 14.0765L21.2316 17.9611C21.0216 19.9611 20.2016 22.0011 15.8016 22.0011H8.18156C3.78156 22.0011 2.96156 19.9611 2.76156 17.9711L2.41569 14.2678C2.38884 13.9802 2.69635 13.786 2.95156 13.9211C3.73156 14.3511 4.54156 14.7311 5.37156 15.0311C5.68156 15.1411 5.90156 15.4011 5.99156 15.7211C6.74156 18.3211 9.16156 20.2511 12.0016 20.2511C14.8916 20.2511 17.3316 18.2811 18.0416 15.5811C18.1216 15.2611 18.3416 15.0011 18.6516 14.8811C19.4916 14.5511 20.2916 14.1611 21.0416 13.7311Z" />
</svg>

<?xml version="1.0" encoding="UTF-8"?>
<svg width="24" height="24" viewBox="0 0 24 24" xmlns="http://www.w3.org/2000/svg">
 <path d="m13.6 14.51-0.53-0.53 0.5-0.5c0.29-0.29 0.29-0.77 0-1.06s-0.77-0.29-1.06 0l-0.5 0.5-0.53-0.53c-0.29-0.29-0.77-0.29-1.06 0s-0.29 0.77 0 1.06l0.53 0.53-0.55 0.55c-0.29 0.29-0.29 0.77 0 1.06 0.15 0.15 0.34 0.22 0.53 0.22s0.38-0.07 0.53-0.22l0.55-0.55 0.53 0.53c0.15 0.15 0.34 0.22 0.53 0.22s0.38-0.07 0.53-0.22c0.29-0.29 0.29-0.76 0-1.06z"/>
 <path d="m21.09 6.98c-0.85-0.94-2.26-1.41-4.33-1.41h-0.24v-0.04c0-1.68 0-3.76-3.76-3.76h-1.52c-3.76 0-3.76 2.08-3.76 3.76v0.04h-0.24c-2.07 0-3.49 0.47-4.33 1.41-0.99 1.11-0.96 2.58-0.86 3.59l0.01 0.07 0.06908 0.806c0.0132 0.1539 0.09674 0.2932 0.22646 0.3772 0.28369 0.1836 0.58551 0.3763 0.87446 0.5368 0.14 0.09 0.29 0.17 0.44 0.25 1.13 0.62 2.34 1.11 3.58 1.45 0.03 2.59 2.15 4.69 4.75 4.69 2.62 0 4.75-2.13 4.75-4.75v-0.04c1.26-0.38 2.47-0.91 3.6-1.57 0.06-0.03 0.1-0.06 0.15-0.09 0.3949-0.2146 0.8045-0.4955 1.1782-0.7605 0.1159-0.0822 0.1908-0.2102 0.2065-0.3514l0.0153-0.1381 0.05-0.47c0.01-0.06 0.01-0.11 0.02-0.18 0.08-0.99998 0.06-2.38-0.88-3.42zm-12.18-1.45c0-1.7 0-2.34 2.33-2.34h1.52c2.33 0 2.33 0.64 2.33 2.34v0.04h-6.18v-0.04zm3.09 11.72c-1.65 0-3.02-1.24-3.22-2.84-0.02-0.13-0.03-0.27-0.03-0.41 0-1.79 1.46-3.25 3.25-3.25s3.25 1.46 3.25 3.25c0 0.12-0.01 0.23-0.02 0.34v0.01c-0.18 1.63-1.56 2.9-3.23 2.9z"/>
 <path d="m21.042 13.731c0.2487-0.1382 0.5713 0.062 0.5454 0.3454l-0.3554 3.8846c-0.21 2-1.03 4.04-5.43 4.04h-7.62c-4.4 0-5.22-2.04-5.42-4.03l-0.34587-3.7033c-0.02685-0.2876 0.28066-0.4818 0.53587-0.3467 0.78 0.43 1.59 0.81 2.42 1.11 0.31 0.11 0.53 0.37 0.62 0.69 0.75 2.6 3.17 4.53 6.01 4.53 2.89 0 5.33-1.97 6.04-4.67 0.08-0.32 0.3-0.58 0.61-0.7 0.84-0.33 1.64-0.72 2.39-1.15z"/>
</svg>
